X: 5599
T: Butcher's Fancy, The
R: jig
M: 6/8
K: Gmajor
Bc|d3 T(BAB)|dBA TA2 B|ded TBAB|dBG G2 B|
ded TBAB|dBA TA2 g|(f/g/a) f {a}gfe|dBG G:|
K:Amix
cd|ecA {g}fed|ecB Acd|ecA {a}gfe|dBG Gcd|
ecA {g}fed|ecB efg|faf {g}gfe|dBG G:|

